X:077
T:Deep Nine,The TS.077
M:C
L:1/8
Q:1/2=60
S:Thomas Sands' MS,1810,Lincolnshire
R:song
C:Dibdin
O:England;Lincolnshire
Z:vmp.Ruairidh Greig, 2011
K:G
GA|B2B2A2cA|G2F2G2>D2|GABcd2>d2|efge d2>d2|
g3f e3d|^cBAG F2 zA|d2d2Befg|d2^c2d2zd|
g3gf3f|e3e {e}d3d|d<Be2c<Ad2|B2^c2Hd2z|
F3G A2HG2|B2B HcHBz B|(Ae)(dc) (cB)(dB)|
(Ae)(de) (cB)(dB)|(cB)(AB) (cB)(cd)|(ed)(ef)Hg2{A}|B3c"tr"A4|G4|]

